X:2
T:The Strayaway Child, pt.2
C:Michael Gorman and Margaret Barry
R:jig
M:6/8
L:1/8
K:Em
D|EAG EDE|~G3 BAG|AGE DB,D|EFE E2D|
EAG EDE|~G3 BAG|AGE DB,D|1 EFE E2:|2 EFE E2|]
G|efe ded|cBA BGE|GAB dBB|AGE D2c|
BAG EDE|GAB cBA|BAG EAG|1 ~E3 E2:|2 ~E3 E2|]
<abc>
